assets/svgs/kitchen-grey/KitchenGrey12.svg

<svg xmlns="http://www.w3.org/2000/svg" data-name="Layer 1" viewBox="0 0 128 128"><path d="M20.692 63.887a3.9 3.9 0 002.758 1.148H34.9v10.143h-2.7a10.135 10.135 0 00-10.106 10.109V98.2A10.134 10.134 0 0032.2 108.312h9.478A10.134 10.134 0 0051.79 98.2V85.287a10.135 10.135 0 00-10.109-10.109h-2.7V65.036h63.499a6 6 0 005.985-5.984V23.616a3.934 3.934 0 00-3.928-3.928H60.968a41.55 41.55 0 00-41.433 41.433 3.9 3.9 0 001.148 2.758zm10 40.143a6.056 6.056 0 01-4.512-5.83V85.287a6.056 6.056 0 014.507-5.828zM43.2 79.459a6.056 6.056 0 014.5 5.828V98.2a6.056 6.056 0 01-4.507 5.828zm-4.086-.2v24.962h-4.341V79.264h4.339zm-4.521-44.513a37.231 37.231 0 0126.375-10.972h43.41v35.277a1.908 1.908 0 01-1.9 1.9H23.623a37.234 37.234 0 0110.97-26.205z"/><path d="M65.66 46.094h23.483a7.587 7.587 0 000-15.173H65.66a7.587 7.587 0 000 15.173zm-2.471-10.058a3.489 3.489 0 012.471-1.03h23.483a3.5 3.5 0 010 7H65.66a3.494 3.494 0 01-2.471-5.971z"/></svg>

<svg id="Layer_1" data-name="Layer 1" xmlns="http://www.w3.org/2000/svg" viewBox="0 0 128 128"><title>Artboard 12</title><path d="M20.692,63.887a3.9,3.9,0,0,0,2.758,1.148H34.9V75.178H32.2A10.135,10.135,0,0,0,22.094,85.287V98.2A10.134,10.134,0,0,0,32.2,108.312h9.478A10.134,10.134,0,0,0,51.79,98.2V85.287A10.135,10.135,0,0,0,41.681,75.178h-2.7V65.036H102.48a6,6,0,0,0,5.985-5.984V23.616a3.934,3.934,0,0,0-3.928-3.928H60.968A41.55,41.55,0,0,0,19.535,61.121h0a3.9,3.9,0,0,0,1.148,2.758Zm10,40.143A6.056,6.056,0,0,1,26.18,98.2V85.287a6.056,6.056,0,0,1,4.507-5.828ZM43.2,79.459A6.056,6.056,0,0,1,47.7,85.287V98.2a6.056,6.056,0,0,1-4.507,5.828Zm-4.086-.2v24.962H34.773V79.264h4.339ZM34.593,34.746A37.231,37.231,0,0,1,60.968,23.774h43.41V59.051a1.908,1.908,0,0,1-1.9,1.9H23.623A37.234,37.234,0,0,1,34.593,34.746Z"/><path d="M65.66,46.094H89.143a7.587,7.587,0,0,0,0-15.173H65.66a7.587,7.587,0,0,0,0,15.173ZM63.189,36.036a3.489,3.489,0,0,1,2.471-1.03H89.143a3.5,3.5,0,0,1,0,7H65.66a3.494,3.494,0,0,1-2.471-5.971Z"/></svg>
